(.../pcb-gcode-3.6.0.4/pcb-gcode.ulp)
(Copyright 2005 - 2012 by John Johnson)
(See readme.txt for licensing terms.)
(This file generated from the board:)
(.../EAGLE/Power.Board/Power.Board.brd)
(Current profile is .../pcb-gcode-3.6.0.4/profiles/generic.pp  )
(This file generated 25.04.2018 11:16:50)
(Settings from pcb-machine.h)
(  Tool Size)
(0.1778 )
(Z Axis Settings)
(  High     Up        Down     Drill)
(12.0000 	10.0000 	-0.1778 	-2.1000 )
(spindle on time = 1.0000)
(milling depth = -0.2540)
(text depth = -0.1270)
(tool change at 12.7000 15.2400 25.4000 )
(feed rate xy = F120.00 )
(feed rate z  = F90.00 )
(Settings from pcb-defaults.h)
(isolate min = 0.0254)
(isolate max = 0.5080)
(isolate step = 0.1270)
(Generated top drill, )
(Unit of measure: mm)
( Tool|       Size       |  Min Sub |  Max Sub |   Count )
( T01  3.200mm 0.1260in 0.0000in 0.0000in )
( T02  1.016mm 0.0400in 0.0000in 0.0000in )
( T03  1.397mm 0.0550in 0.0000in 0.0000in )
(Metric Mode)
G21
(Absolute Coordinates)
G90
M05
G00 Z25.4000 
G00 X12.7000 Y15.2400 
M06 T01  ; 3.2000 
G01 Z0.0000 F90.00 
M06 T01  ; 3.2000 
G00 Z10.0000 
M03
G04 P1.000000
G00 Z10.000000
G00 X5.0000 Y4.0000 
G01 Z-2.1000 F90.00 
G01 Z10.000000
(R10.0000  P1.000000)
(G00 Z10.000000)
G00 X5.0000 Y45.0000 
G01 Z-2.100000
G01 Z10.000000
(G00 Z10.000000)
G00 X115.0000 Y4.0000 
G01 Z-2.100000
G01 Z10.000000
(G00 Z10.000000)
G00 X115.0000 Y45.0000 
G01 Z-2.100000
G01 Z10.000000
M05
G00 Z25.4000 
M06 T02  ; 1.0160 
G01 Z0.0000 F90.00 
M06 T02  ; 1.0160 
G00 Z10.0000 
M03
G04 P1.000000
G00 Z10.000000
G00 X63.0000 Y11.0000 
G01 Z-2.1000 F90.00 
G01 Z10.000000
(R10.0000  P1.000000)
(G00 Z10.000000)
G00 X63.0000 Y28.7000 
G01 Z-2.100000
G01 Z10.000000
(G00 Z10.000000)
G00 X71.7000 Y11.0000 
G01 Z-2.100000
G01 Z10.000000
(G00 Z10.000000)
G00 X71.7000 Y28.7000 
G01 Z-2.100000
G01 Z10.000000
(G00 Z10.000000)
G00 X104.1400 Y38.9100 
G01 Z-2.100000
G01 Z10.000000
(G00 Z10.000000)
G00 X106.6800 Y38.9100 
G01 Z-2.100000
G01 Z10.000000
(G00 Z10.000000)
G00 X109.2200 Y38.9100 
G01 Z-2.100000
G01 Z10.000000
(G00 Z10.000000)
G00 X111.7000 Y11.0000 
G01 Z-2.100000
G01 Z10.000000
(G00 Z10.000000)
G00 X111.7000 Y28.7000 
G01 Z-2.100000
G01 Z10.000000
(G00 Z10.000000)
G00 X23.0000 Y11.0000 
G01 Z-2.100000
G01 Z10.000000
(G00 Z10.000000)
G00 X23.0000 Y28.7000 
G01 Z-2.100000
G01 Z10.000000
M05
G00 Z25.4000 
M06 T03  ; 1.3970 
G01 Z0.0000 F90.00 
M06 T03  ; 1.3970 
G00 Z10.0000 
M03
G04 P1.000000
G00 Z10.000000
G00 X33.0200 Y38.9100 
G01 Z-2.1000 F90.00 
G01 Z10.000000
(R10.0000  P1.000000)
(G00 Z10.000000)
G00 X38.1000 Y38.9100 
G01 Z-2.100000
G01 Z10.000000
(G00 Z10.000000)
G00 X43.1800 Y38.9100 
G01 Z-2.100000
G01 Z10.000000
(G00 Z10.000000)
G00 X48.2600 Y38.9100 
G01 Z-2.100000
G01 Z10.000000
(G00 Z10.000000)
G00 X53.3400 Y38.9100 
G01 Z-2.100000
G01 Z10.000000
(G00 Z10.000000)
G00 X58.4200 Y38.9100 
G01 Z-2.100000
G01 Z10.000000
(G00 Z10.000000)
G00 X63.5000 Y38.9100 
G01 Z-2.100000
G01 Z10.000000
(G00 Z10.000000)
G00 X10.1600 Y12.2300 
G01 Z-2.100000
G01 Z10.000000
(G00 Z10.000000)
G00 X10.1600 Y17.3100 
G01 Z-2.100000
G01 Z10.000000
(G00 Z10.000000)
G00 X10.1600 Y22.3900 
G01 Z-2.100000
G01 Z10.000000
(G00 Z10.000000)
G00 X10.1600 Y27.4700 
G01 Z-2.100000
G01 Z10.000000
(G00 Z10.000000)
G00 X17.7800 Y38.9100 
G01 Z-2.100000
G01 Z10.000000
(G00 Z10.000000)
G00 X22.8600 Y38.9100 
G01 Z-2.100000
G01 Z10.000000
(G00 Z10.000000)
G00 X27.9400 Y38.9100 
G01 Z-2.100000
G01 Z10.000000
T01 
G00 Z12.0000 
M05
M02
