(.../pcb-gcode-3.6.0.4/pcb-gcode.ulp)
(Copyright 2005 - 2012 by John Johnson)
(See readme.txt for licensing terms.)
(This file generated from the board:)
(.../Control.Board/Control.Board.brd)
(Current profile is .../pcb-gcode-3.6.0.4/profiles/generic.pp  )
(This file generated 13.05.2018 13:18:57)
(Settings from pcb-machine.h)
(  Tool Size)
(0.1778 )
(Z Axis Settings)
(  High     Up        Down     Drill)
(12.0000 	2.0000 	-0.1778 	-2.1000 )
(spindle on time = 1.0000)
(milling depth = -0.2540)
(text depth = -0.1270)
(tool change at 0.0000 0.0000 25.4000 )
(feed rate xy = F120.00 )
(feed rate z  = F90.00 )
(Settings from pcb-defaults.h)
(isolate min = 0.0254)
(isolate max = 0.5080)
(isolate step = 0.1270)
(Generated top drill, )
(Unit of measure: mm)
( Tool|       Size       |  Min Sub |  Max Sub |   Count )
( T01  3.200mm 0.1260in 0.0000in 0.0000in )
( T02  0.600mm 0.0236in 0.0000in 0.0000in )
( T03  1.016mm 0.0400in 0.0000in 0.0000in )
( T04  1.020mm 0.0402in 0.0000in 0.0000in )
( T05  3.000mm 0.1181in 0.0000in 0.0000in )
(Metric Mode)
G21
(Absolute Coordinates)
G90
M05
G00 Z25.4000 
G00 X0.0000 Y0.0000 
M06 T01  ; 3.2000 
G01 Z0.0000 F90.00 
M06 T01  ; 3.2000 
G00 Z2.0000 
M03
G04 P1.000000
G00 Z2.000000
G00 X-35.5600 Y68.5800 
G01 Z-2.1000 F90.00 
G01 Z2.000000
(R2.0000  P1.000000)
(G00 Z2.000000)
G00 X-50.8000 Y92.7100 
G01 Z-2.100000
G01 Z2.000000
(G00 Z2.000000)
G00 X-50.8000 Y17.7800 
G01 Z-2.100000
G01 Z2.000000
(G00 Z2.000000)
G00 X-7.6200 Y68.5800 
G01 Z-2.100000
G01 Z2.000000
(G00 Z2.000000)
G00 X-2.5400 Y99.0600 
G01 Z-2.100000
G01 Z2.000000
(G00 Z2.000000)
G00 X-2.5400 Y16.5100 
G01 Z-2.100000
G01 Z2.000000
M05
G00 Z25.4000 
M06 T02  ; 0.6000 
G01 Z0.0000 F90.00 
M06 T02  ; 0.6000 
G00 Z2.0000 
M03
G04 P1.000000
G00 Z2.000000
G00 X-31.7500 Y54.6100 
G01 Z-2.1000 F90.00 
G01 Z2.000000
(R2.0000  P1.000000)
(G00 Z2.000000)
G00 X-33.0200 Y10.1600 
G01 Z-2.100000
G01 Z2.000000
(G00 Z2.000000)
G00 X-34.2900 Y52.0700 
G01 Z-2.100000
G01 Z2.000000
(G00 Z2.000000)
G00 X-34.2900 Y19.0500 
G01 Z-2.100000
G01 Z2.000000
(G00 Z2.000000)
G00 X-35.5600 Y76.2000 
G01 Z-2.100000
G01 Z2.000000
(G00 Z2.000000)
G00 X-35.5600 Y81.2800 
G01 Z-2.100000
G01 Z2.000000
(G00 Z2.000000)
G00 X-35.5600 Y86.3600 
G01 Z-2.100000
G01 Z2.000000
(G00 Z2.000000)
G00 X-35.5600 Y91.4400 
G01 Z-2.100000
G01 Z2.000000
(G00 Z2.000000)
G00 X-38.1000 Y52.0700 
G01 Z-2.100000
G01 Z2.000000
(G00 Z2.000000)
G00 X-44.4500 Y64.7700 
G01 Z-2.100000
G01 Z2.000000
(G00 Z2.000000)
G00 X-46.9900 Y60.9600 
G01 Z-2.100000
G01 Z2.000000
(G00 Z2.000000)
G00 X-48.2600 Y31.7500 
G01 Z-2.100000
G01 Z2.000000
(G00 Z2.000000)
G00 X-48.2600 Y107.9500 
G01 Z-2.100000
G01 Z2.000000
(G00 Z2.000000)
G00 X-50.8000 Y104.1400 
G01 Z-2.100000
G01 Z2.000000
(G00 Z2.000000)
G00 X-53.9750 Y73.6600 
G01 Z-2.100000
G01 Z2.000000
(G00 Z2.000000)
G00 X-54.6100 Y50.8000 
G01 Z-2.100000
G01 Z2.000000
(G00 Z2.000000)
G00 X-54.6100 Y95.8850 
G01 Z-2.100000
G01 Z2.000000
(G00 Z2.000000)
G00 X-54.6100 Y105.4100 
G01 Z-2.100000
G01 Z2.000000
(G00 Z2.000000)
G00 X-5.7150 Y104.1400 
G01 Z-2.100000
G01 Z2.000000
(G00 Z2.000000)
G00 X-57.1500 Y4.4450 
G01 Z-2.100000
G01 Z2.000000
(G00 Z2.000000)
G00 X-57.1500 Y6.9850 
G01 Z-2.100000
G01 Z2.000000
(G00 Z2.000000)
G00 X-58.4200 Y53.3400 
G01 Z-2.100000
G01 Z2.000000
(G00 Z2.000000)
G00 X-59.0550 Y81.9150 
G01 Z-2.100000
G01 Z2.000000
(G00 Z2.000000)
G00 X-59.2100 Y71.7900 
G01 Z-2.100000
G01 Z2.000000
(G00 Z2.000000)
G00 X-59.6900 Y48.2600 
G01 Z-2.100000
G01 Z2.000000
(G00 Z2.000000)
G00 X-62.2300 Y54.6100 
G01 Z-2.100000
G01 Z2.000000
(G00 Z2.000000)
G00 X-6.3500 Y48.2600 
G01 Z-2.100000
G01 Z2.000000
(G00 Z2.000000)
G00 X-63.7100 Y71.7900 
G01 Z-2.100000
G01 Z2.000000
(G00 Z2.000000)
G00 X-63.7100 Y75.7900 
G01 Z-2.100000
G01 Z2.000000
(G00 Z2.000000)
G00 X-66.0400 Y12.7000 
G01 Z-2.100000
G01 Z2.000000
(G00 Z2.000000)
G00 X-71.1200 Y73.6600 
G01 Z-2.100000
G01 Z2.000000
(G00 Z2.000000)
G00 X-7.6200 Y4.4450 
G01 Z-2.100000
G01 Z2.000000
(G00 Z2.000000)
G00 X-8.8900 Y33.0200 
G01 Z-2.100000
G01 Z2.000000
(G00 Z2.000000)
G00 X-10.1600 Y19.0500 
G01 Z-2.100000
G01 Z2.000000
(G00 Z2.000000)
G00 X-12.7000 Y104.1400 
G01 Z-2.100000
G01 Z2.000000
(G00 Z2.000000)
G00 X-13.9700 Y11.4300 
G01 Z-2.100000
G01 Z2.000000
(G00 Z2.000000)
G00 X-15.2400 Y52.0700 
G01 Z-2.100000
G01 Z2.000000
(G00 Z2.000000)
G00 X-16.5100 Y62.2300 
G01 Z-2.100000
G01 Z2.000000
(G00 Z2.000000)
G00 X-20.3200 Y52.0700 
G01 Z-2.100000
G01 Z2.000000
(G00 Z2.000000)
G00 X-21.5900 Y11.4300 
G01 Z-2.100000
G01 Z2.000000
(G00 Z2.000000)
G00 X-22.8600 Y52.0700 
G01 Z-2.100000
G01 Z2.000000
(G00 Z2.000000)
G00 X-24.1300 Y54.6100 
G01 Z-2.100000
G01 Z2.000000
(G00 Z2.000000)
G00 X-24.1300 Y62.2300 
G01 Z-2.100000
G01 Z2.000000
(G00 Z2.000000)
G00 X-27.9400 Y52.0700 
G01 Z-2.100000
G01 Z2.000000
(G00 Z2.000000)
G00 X-29.2100 Y97.7900 
G01 Z-2.100000
G01 Z2.000000
(G00 Z2.000000)
G00 X-30.4800 Y8.8900 
G01 Z-2.100000
G01 Z2.000000
M05
G00 Z25.4000 
M06 T03  ; 1.0160 
G01 Z0.0000 F90.00 
M06 T03  ; 1.0160 
G00 Z2.0000 
M03
G04 P1.000000
G00 Z2.000000
G00 X-31.7500 Y57.1500 
G01 Z-2.1000 F90.00 
G01 Z2.000000
(R2.0000  P1.000000)
(G00 Z2.000000)
G00 X-31.7500 Y59.6900 
G01 Z-2.100000
G01 Z2.000000
(G00 Z2.000000)
G00 X-31.7500 Y13.9700 
G01 Z-2.100000
G01 Z2.000000
(G00 Z2.000000)
G00 X-31.7500 Y16.5100 
G01 Z-2.100000
G01 Z2.000000
(G00 Z2.000000)
G00 X-33.0200 Y96.5200 
G01 Z-2.100000
G01 Z2.000000
(G00 Z2.000000)
G00 X-33.0200 Y99.0600 
G01 Z-2.100000
G01 Z2.000000
(G00 Z2.000000)
G00 X-34.2900 Y57.1500 
G01 Z-2.100000
G01 Z2.000000
(G00 Z2.000000)
G00 X-34.2900 Y59.6900 
G01 Z-2.100000
G01 Z2.000000
(G00 Z2.000000)
G00 X-34.2900 Y13.9700 
G01 Z-2.100000
G01 Z2.000000
(G00 Z2.000000)
G00 X-34.2900 Y16.5100 
G01 Z-2.100000
G01 Z2.000000
(G00 Z2.000000)
G00 X-35.5600 Y96.5200 
G01 Z-2.100000
G01 Z2.000000
(G00 Z2.000000)
G00 X-35.5600 Y99.0600 
G01 Z-2.100000
G01 Z2.000000
(G00 Z2.000000)
G00 X-36.8300 Y57.1500 
G01 Z-2.100000
G01 Z2.000000
(G00 Z2.000000)
G00 X-36.8300 Y59.6900 
G01 Z-2.100000
G01 Z2.000000
(G00 Z2.000000)
G00 X-36.8300 Y13.9700 
G01 Z-2.100000
G01 Z2.000000
(G00 Z2.000000)
G00 X-36.8300 Y16.5100 
G01 Z-2.100000
G01 Z2.000000
(G00 Z2.000000)
G00 X-38.1000 Y96.5200 
G01 Z-2.100000
G01 Z2.000000
(G00 Z2.000000)
G00 X-38.1000 Y99.0600 
G01 Z-2.100000
G01 Z2.000000
(G00 Z2.000000)
G00 X-39.3700 Y13.9700 
G01 Z-2.100000
G01 Z2.000000
(G00 Z2.000000)
G00 X-39.3700 Y16.5100 
G01 Z-2.100000
G01 Z2.000000
(G00 Z2.000000)
G00 X-40.6400 Y83.8200 
G01 Z-2.100000
G01 Z2.000000
(G00 Z2.000000)
G00 X-40.6400 Y86.3600 
G01 Z-2.100000
G01 Z2.000000
(G00 Z2.000000)
G00 X-40.6400 Y88.9000 
G01 Z-2.100000
G01 Z2.000000
(G00 Z2.000000)
G00 X-40.6400 Y91.4400 
G01 Z-2.100000
G01 Z2.000000
(G00 Z2.000000)
G00 X-40.6400 Y96.5200 
G01 Z-2.100000
G01 Z2.000000
(G00 Z2.000000)
G00 X-40.6400 Y99.0600 
G01 Z-2.100000
G01 Z2.000000
(G00 Z2.000000)
G00 X-43.1800 Y83.8200 
G01 Z-2.100000
G01 Z2.000000
(G00 Z2.000000)
G00 X-43.1800 Y86.3600 
G01 Z-2.100000
G01 Z2.000000
(G00 Z2.000000)
G00 X-43.1800 Y88.9000 
G01 Z-2.100000
G01 Z2.000000
(G00 Z2.000000)
G00 X-43.1800 Y91.4400 
G01 Z-2.100000
G01 Z2.000000
(G00 Z2.000000)
G00 X-43.1800 Y96.5200 
G01 Z-2.100000
G01 Z2.000000
(G00 Z2.000000)
G00 X-43.1800 Y99.0600 
G01 Z-2.100000
G01 Z2.000000
(G00 Z2.000000)
G00 X-45.7200 Y96.5200 
G01 Z-2.100000
G01 Z2.000000
(G00 Z2.000000)
G00 X-45.7200 Y99.0600 
G01 Z-2.100000
G01 Z2.000000
(G00 Z2.000000)
G00 X-48.2600 Y96.5200 
G01 Z-2.100000
G01 Z2.000000
(G00 Z2.000000)
G00 X-48.2600 Y99.0600 
G01 Z-2.100000
G01 Z2.000000
(G00 Z2.000000)
G00 X-50.8000 Y31.7500 
G01 Z-2.100000
G01 Z2.000000
(G00 Z2.000000)
G00 X-50.8000 Y34.2900 
G01 Z-2.100000
G01 Z2.000000
(G00 Z2.000000)
G00 X-50.8000 Y36.8300 
G01 Z-2.100000
G01 Z2.000000
(G00 Z2.000000)
G00 X-50.8000 Y39.3700 
G01 Z-2.100000
G01 Z2.000000
(G00 Z2.000000)
G00 X-50.8000 Y41.9100 
G01 Z-2.100000
G01 Z2.000000
(G00 Z2.000000)
G00 X-50.8000 Y44.4500 
G01 Z-2.100000
G01 Z2.000000
(G00 Z2.000000)
G00 X-50.8000 Y48.2600 
G01 Z-2.100000
G01 Z2.000000
(G00 Z2.000000)
G00 X-50.8000 Y50.8000 
G01 Z-2.100000
G01 Z2.000000
(G00 Z2.000000)
G00 X-50.8000 Y53.3400 
G01 Z-2.100000
G01 Z2.000000
(G00 Z2.000000)
G00 X-50.8000 Y55.8800 
G01 Z-2.100000
G01 Z2.000000
(G00 Z2.000000)
G00 X-50.8000 Y58.4200 
G01 Z-2.100000
G01 Z2.000000
(G00 Z2.000000)
G00 X-50.8000 Y60.9600 
G01 Z-2.100000
G01 Z2.000000
(G00 Z2.000000)
G00 X-50.8000 Y63.5000 
G01 Z-2.100000
G01 Z2.000000
(G00 Z2.000000)
G00 X-50.8000 Y66.0400 
G01 Z-2.100000
G01 Z2.000000
(G00 Z2.000000)
G00 X-50.8000 Y71.1200 
G01 Z-2.100000
G01 Z2.000000
(G00 Z2.000000)
G00 X-50.8000 Y73.6600 
G01 Z-2.100000
G01 Z2.000000
(G00 Z2.000000)
G00 X-50.8000 Y76.2000 
G01 Z-2.100000
G01 Z2.000000
(G00 Z2.000000)
G00 X-50.8000 Y78.7400 
G01 Z-2.100000
G01 Z2.000000
(G00 Z2.000000)
G00 X-50.8000 Y81.2800 
G01 Z-2.100000
G01 Z2.000000
(G00 Z2.000000)
G00 X-50.8000 Y83.8200 
G01 Z-2.100000
G01 Z2.000000
(G00 Z2.000000)
G00 X-50.8000 Y86.3600 
G01 Z-2.100000
G01 Z2.000000
(G00 Z2.000000)
G00 X-50.8000 Y88.9000 
G01 Z-2.100000
G01 Z2.000000
(G00 Z2.000000)
G00 X-50.8000 Y96.5200 
G01 Z-2.100000
G01 Z2.000000
(G00 Z2.000000)
G00 X-50.8000 Y99.0600 
G01 Z-2.100000
G01 Z2.000000
(G00 Z2.000000)
G00 X-50.8000 Y21.5900 
G01 Z-2.100000
G01 Z2.000000
(G00 Z2.000000)
G00 X-50.8000 Y24.1300 
G01 Z-2.100000
G01 Z2.000000
(G00 Z2.000000)
G00 X-50.8000 Y26.6700 
G01 Z-2.100000
G01 Z2.000000
(G00 Z2.000000)
G00 X-50.8000 Y29.2100 
G01 Z-2.100000
G01 Z2.000000
(G00 Z2.000000)
G00 X-64.8300 Y4.4300 
G01 Z-2.100000
G01 Z2.000000
(G00 Z2.000000)
G00 X-64.8300 Y6.9700 
G01 Z-2.100000
G01 Z2.000000
(G00 Z2.000000)
G00 X-64.8300 Y9.5100 
G01 Z-2.100000
G01 Z2.000000
(G00 Z2.000000)
G00 X-64.8300 Y18.3700 
G01 Z-2.100000
G01 Z2.000000
(G00 Z2.000000)
G00 X-64.8300 Y20.9100 
G01 Z-2.100000
G01 Z2.000000
(G00 Z2.000000)
G00 X-64.8300 Y23.4500 
G01 Z-2.100000
G01 Z2.000000
(G00 Z2.000000)
G00 X-64.8300 Y25.9900 
G01 Z-2.100000
G01 Z2.000000
(G00 Z2.000000)
G00 X-7.6200 Y96.5200 
G01 Z-2.100000
G01 Z2.000000
(G00 Z2.000000)
G00 X-7.6200 Y99.0600 
G01 Z-2.100000
G01 Z2.000000
(G00 Z2.000000)
G00 X-10.1600 Y96.5200 
G01 Z-2.100000
G01 Z2.000000
(G00 Z2.000000)
G00 X-10.1600 Y99.0600 
G01 Z-2.100000
G01 Z2.000000
(G00 Z2.000000)
G00 X-10.1600 Y107.9500 
G01 Z-2.100000
G01 Z2.000000
(G00 Z2.000000)
G00 X-12.7000 Y96.5200 
G01 Z-2.100000
G01 Z2.000000
(G00 Z2.000000)
G00 X-12.7000 Y99.0600 
G01 Z-2.100000
G01 Z2.000000
(G00 Z2.000000)
G00 X-12.7000 Y107.9500 
G01 Z-2.100000
G01 Z2.000000
(G00 Z2.000000)
G00 X-13.9700 Y13.9700 
G01 Z-2.100000
G01 Z2.000000
(G00 Z2.000000)
G00 X-13.9700 Y16.5100 
G01 Z-2.100000
G01 Z2.000000
(G00 Z2.000000)
G00 X-15.2400 Y96.5200 
G01 Z-2.100000
G01 Z2.000000
(G00 Z2.000000)
G00 X-15.2400 Y99.0600 
G01 Z-2.100000
G01 Z2.000000
(G00 Z2.000000)
G00 X-16.5100 Y57.1500 
G01 Z-2.100000
G01 Z2.000000
(G00 Z2.000000)
G00 X-16.5100 Y59.6900 
G01 Z-2.100000
G01 Z2.000000
(G00 Z2.000000)
G00 X-16.5100 Y13.9700 
G01 Z-2.100000
G01 Z2.000000
(G00 Z2.000000)
G00 X-16.5100 Y16.5100 
G01 Z-2.100000
G01 Z2.000000
(G00 Z2.000000)
G00 X-17.7800 Y96.5200 
G01 Z-2.100000
G01 Z2.000000
(G00 Z2.000000)
G00 X-17.7800 Y99.0600 
G01 Z-2.100000
G01 Z2.000000
(G00 Z2.000000)
G00 X-19.0500 Y57.1500 
G01 Z-2.100000
G01 Z2.000000
(G00 Z2.000000)
G00 X-19.0500 Y59.6900 
G01 Z-2.100000
G01 Z2.000000
(G00 Z2.000000)
G00 X-19.0500 Y13.9700 
G01 Z-2.100000
G01 Z2.000000
(G00 Z2.000000)
G00 X-19.0500 Y16.5100 
G01 Z-2.100000
G01 Z2.000000
(G00 Z2.000000)
G00 X-20.3200 Y96.5200 
G01 Z-2.100000
G01 Z2.000000
(G00 Z2.000000)
G00 X-20.3200 Y99.0600 
G01 Z-2.100000
G01 Z2.000000
(G00 Z2.000000)
G00 X-21.5900 Y57.1500 
G01 Z-2.100000
G01 Z2.000000
(G00 Z2.000000)
G00 X-21.5900 Y59.6900 
G01 Z-2.100000
G01 Z2.000000
(G00 Z2.000000)
G00 X-21.5900 Y13.9700 
G01 Z-2.100000
G01 Z2.000000
(G00 Z2.000000)
G00 X-21.5900 Y16.5100 
G01 Z-2.100000
G01 Z2.000000
(G00 Z2.000000)
G00 X-22.8600 Y96.5200 
G01 Z-2.100000
G01 Z2.000000
(G00 Z2.000000)
G00 X-22.8600 Y99.0600 
G01 Z-2.100000
G01 Z2.000000
(G00 Z2.000000)
G00 X-24.1300 Y57.1500 
G01 Z-2.100000
G01 Z2.000000
(G00 Z2.000000)
G00 X-24.1300 Y59.6900 
G01 Z-2.100000
G01 Z2.000000
(G00 Z2.000000)
G00 X-24.1300 Y13.9700 
G01 Z-2.100000
G01 Z2.000000
(G00 Z2.000000)
G00 X-24.1300 Y16.5100 
G01 Z-2.100000
G01 Z2.000000
(G00 Z2.000000)
G00 X-2.5400 Y33.0200 
G01 Z-2.100000
G01 Z2.000000
(G00 Z2.000000)
G00 X-2.5400 Y35.5600 
G01 Z-2.100000
G01 Z2.000000
(G00 Z2.000000)
G00 X-2.5400 Y38.1000 
G01 Z-2.100000
G01 Z2.000000
(G00 Z2.000000)
G00 X-2.5400 Y40.6400 
G01 Z-2.100000
G01 Z2.000000
(G00 Z2.000000)
G00 X-2.5400 Y43.1800 
G01 Z-2.100000
G01 Z2.000000
(G00 Z2.000000)
G00 X-2.5400 Y45.7200 
G01 Z-2.100000
G01 Z2.000000
(G00 Z2.000000)
G00 X-2.5400 Y48.2600 
G01 Z-2.100000
G01 Z2.000000
(G00 Z2.000000)
G00 X-2.5400 Y53.3400 
G01 Z-2.100000
G01 Z2.000000
(G00 Z2.000000)
G00 X-2.5400 Y55.8800 
G01 Z-2.100000
G01 Z2.000000
(G00 Z2.000000)
G00 X-2.5400 Y58.4200 
G01 Z-2.100000
G01 Z2.000000
(G00 Z2.000000)
G00 X-2.5400 Y60.9600 
G01 Z-2.100000
G01 Z2.000000
(G00 Z2.000000)
G00 X-2.5400 Y63.5000 
G01 Z-2.100000
G01 Z2.000000
(G00 Z2.000000)
G00 X-2.5400 Y66.0400 
G01 Z-2.100000
G01 Z2.000000
(G00 Z2.000000)
G00 X-2.5400 Y68.5800 
G01 Z-2.100000
G01 Z2.000000
(G00 Z2.000000)
G00 X-2.5400 Y71.1200 
G01 Z-2.100000
G01 Z2.000000
(G00 Z2.000000)
G00 X-2.5400 Y76.2000 
G01 Z-2.100000
G01 Z2.000000
(G00 Z2.000000)
G00 X-2.5400 Y78.7400 
G01 Z-2.100000
G01 Z2.000000
(G00 Z2.000000)
G00 X-2.5400 Y81.2800 
G01 Z-2.100000
G01 Z2.000000
(G00 Z2.000000)
G00 X-2.5400 Y83.8200 
G01 Z-2.100000
G01 Z2.000000
(G00 Z2.000000)
G00 X-2.5400 Y86.3600 
G01 Z-2.100000
G01 Z2.000000
(G00 Z2.000000)
G00 X-2.5400 Y88.9000 
G01 Z-2.100000
G01 Z2.000000
(G00 Z2.000000)
G00 X-2.5400 Y91.4400 
G01 Z-2.100000
G01 Z2.000000
(G00 Z2.000000)
G00 X-2.5400 Y93.9800 
G01 Z-2.100000
G01 Z2.000000
(G00 Z2.000000)
G00 X-2.5400 Y30.4800 
G01 Z-2.100000
G01 Z2.000000
(G00 Z2.000000)
G00 X-25.4000 Y96.5200 
G01 Z-2.100000
G01 Z2.000000
(G00 Z2.000000)
G00 X-25.4000 Y99.0600 
G01 Z-2.100000
G01 Z2.000000
(G00 Z2.000000)
G00 X-26.6700 Y57.1500 
G01 Z-2.100000
G01 Z2.000000
(G00 Z2.000000)
G00 X-26.6700 Y59.6900 
G01 Z-2.100000
G01 Z2.000000
(G00 Z2.000000)
G00 X-26.6700 Y13.9700 
G01 Z-2.100000
G01 Z2.000000
(G00 Z2.000000)
G00 X-26.6700 Y16.5100 
G01 Z-2.100000
G01 Z2.000000
(G00 Z2.000000)
G00 X-27.9400 Y96.5200 
G01 Z-2.100000
G01 Z2.000000
(G00 Z2.000000)
G00 X-27.9400 Y99.0600 
G01 Z-2.100000
G01 Z2.000000
(G00 Z2.000000)
G00 X-29.2100 Y57.1500 
G01 Z-2.100000
G01 Z2.000000
(G00 Z2.000000)
G00 X-29.2100 Y59.6900 
G01 Z-2.100000
G01 Z2.000000
(G00 Z2.000000)
G00 X-29.2100 Y13.9700 
G01 Z-2.100000
G01 Z2.000000
(G00 Z2.000000)
G00 X-29.2100 Y16.5100 
G01 Z-2.100000
G01 Z2.000000
(G00 Z2.000000)
G00 X-30.4800 Y96.5200 
G01 Z-2.100000
G01 Z2.000000
(G00 Z2.000000)
G00 X-30.4800 Y99.0600 
G01 Z-2.100000
G01 Z2.000000
M05
G00 Z25.4000 
M06 T04  ; 1.0200 
G01 Z0.0000 F90.00 
M06 T04  ; 1.0200 
G00 Z2.0000 
M03
G04 P1.000000
G00 Z2.000000
G00 X-63.7100 Y49.2600 
G01 Z-2.1000 F90.00 
G01 Z2.000000
(R2.0000  P1.000000)
(G00 Z2.000000)
G00 X-63.7100 Y52.2600 
G01 Z-2.100000
G01 Z2.000000
(G00 Z2.000000)
G00 X-63.7100 Y62.7900 
G01 Z-2.100000
G01 Z2.000000
(G00 Z2.000000)
G00 X-63.7100 Y65.7900 
G01 Z-2.100000
G01 Z2.000000
(G00 Z2.000000)
G00 X-63.7100 Y68.7900 
G01 Z-2.100000
G01 Z2.000000
(G00 Z2.000000)
G00 X-63.7100 Y78.7900 
G01 Z-2.100000
G01 Z2.000000
(G00 Z2.000000)
G00 X-63.7100 Y81.7900 
G01 Z-2.100000
G01 Z2.000000
(G00 Z2.000000)
G00 X-63.7100 Y84.7900 
G01 Z-2.100000
G01 Z2.000000
(G00 Z2.000000)
G00 X-63.7100 Y94.7900 
G01 Z-2.100000
G01 Z2.000000
(G00 Z2.000000)
G00 X-63.7100 Y97.7900 
G01 Z-2.100000
G01 Z2.000000
(G00 Z2.000000)
G00 X-63.7100 Y100.7900 
G01 Z-2.100000
G01 Z2.000000
(G00 Z2.000000)
G00 X-63.7100 Y110.7900 
G01 Z-2.100000
G01 Z2.000000
(G00 Z2.000000)
G00 X-63.7100 Y113.7900 
G01 Z-2.100000
G01 Z2.000000
(G00 Z2.000000)
G00 X-63.7100 Y116.7900 
G01 Z-2.100000
G01 Z2.000000
(G00 Z2.000000)
G00 X-66.7100 Y49.2600 
G01 Z-2.100000
G01 Z2.000000
(G00 Z2.000000)
G00 X-66.7100 Y52.2600 
G01 Z-2.100000
G01 Z2.000000
(G00 Z2.000000)
G00 X-66.7100 Y62.7900 
G01 Z-2.100000
G01 Z2.000000
(G00 Z2.000000)
G00 X-66.7100 Y65.7900 
G01 Z-2.100000
G01 Z2.000000
(G00 Z2.000000)
G00 X-66.7100 Y68.7900 
G01 Z-2.100000
G01 Z2.000000
(G00 Z2.000000)
G00 X-66.7100 Y78.7900 
G01 Z-2.100000
G01 Z2.000000
(G00 Z2.000000)
G00 X-66.7100 Y81.7900 
G01 Z-2.100000
G01 Z2.000000
(G00 Z2.000000)
G00 X-66.7100 Y84.7900 
G01 Z-2.100000
G01 Z2.000000
(G00 Z2.000000)
G00 X-66.7100 Y94.7900 
G01 Z-2.100000
G01 Z2.000000
(G00 Z2.000000)
G00 X-66.7100 Y97.7900 
G01 Z-2.100000
G01 Z2.000000
(G00 Z2.000000)
G00 X-66.7100 Y100.7900 
G01 Z-2.100000
G01 Z2.000000
(G00 Z2.000000)
G00 X-66.7100 Y110.7900 
G01 Z-2.100000
G01 Z2.000000
(G00 Z2.000000)
G00 X-66.7100 Y113.7900 
G01 Z-2.100000
G01 Z2.000000
(G00 Z2.000000)
G00 X-66.7100 Y116.7900 
G01 Z-2.100000
G01 Z2.000000
M05
G00 Z25.4000 
M06 T05  ; 3.0000 
G01 Z0.0000 F90.00 
M06 T05  ; 3.0000 
G00 Z2.0000 
M03
G04 P1.000000
G00 Z2.000000
G00 X-71.0300 Y50.7600 
G01 Z-2.1000 F90.00 
G01 Z2.000000
(R2.0000  P1.000000)
(G00 Z2.000000)
G00 X-71.0300 Y65.7900 
G01 Z-2.100000
G01 Z2.000000
(G00 Z2.000000)
G00 X-71.0300 Y81.7900 
G01 Z-2.100000
G01 Z2.000000
(G00 Z2.000000)
G00 X-71.0300 Y97.7900 
G01 Z-2.100000
G01 Z2.000000
(G00 Z2.000000)
G00 X-71.0300 Y113.7900 
G01 Z-2.100000
G01 Z2.000000
T01 
G00 Z12.0000 
M05
M02
